X: 8
T:First Slip, The
Z: id:dc-slipjig-7
M:9/8
L:1/8
K:G Major
"G"dBG GDG G2B| dBG GBd "C"gfe| "G"dBG GDG G2B| "D7"cAG FGA cBA:|
"G"GBd dBd d2B| GBd dBd gdB| GBd dBd ded| "D7"cAG FGA cBA:|!
